X:31
T:St.James's Park THO1.031
M:12/8
L:1/8
Z:vmp. Peter Dunk 2012.from a transcription by Fynn Titford-Mock 2006
B:Thompson's Compleat Collection of 200 Favourite Country Dances Vol.I,1758
Q:3/8=100
K:A
ecA ABA ABA f/g/ag|ecA ABA ABA B/c/dB|\
ecA ABA ABA (f/g/a)g|edc dcB A3 a3:|
|:ecA aec ecA f/g/af|ecA aec ecA (e/f/=g)e|\
ecA aec ecA f/g/af|eaf ecB A3a3:|

